scalable/status/changes-prevent.svg

<?xml version="1.0" encoding="UTF-8" standalone="no"?>
<svg
   xmlns:dc="http://purl.org/dc/elements/1.1/"
   xmlns:cc="http://creativecommons.org/ns#"
   xmlns:rdf="http://www.w3.org/1999/02/22-rdf-syntax-ns#"
   xmlns:svg="http://www.w3.org/2000/svg"
   xmlns="http://www.w3.org/2000/svg"
   xmlns:sodipodi="http://sodipodi.sourceforge.net/DTD/sodipodi-0.dtd"
   xmlns:inkscape="http://www.inkscape.org/namespaces/inkscape"
   fill="#ff9800"
   height="48"
   viewBox="0 0 48 48"
   width="48"
   version="1.1"
   id="svg4"
   sodipodi:docname="changes-prevent.svg"
   inkscape:version="0.92.3 (2405546, 2018-03-11)">
  <metadata
     id="metadata10">
    <rdf:RDF>
      <cc:Work
         rdf:about="">
        <dc:format>image/svg+xml</dc:format>
        <dc:type
           rdf:resource="http://purl.org/dc/dcmitype/StillImage" />
        <dc:title></dc:title>
      </cc:Work>
    </rdf:RDF>
  </metadata>
  <defs
     id="defs8" />
  <sodipodi:namedview
     pagecolor="#ffffff"
     bordercolor="#666666"
     borderopacity="1"
     objecttolerance="10"
     gridtolerance="10"
     guidetolerance="10"
     inkscape:pageopacity="0"
     inkscape:pageshadow="2"
     inkscape:window-width="1366"
     inkscape:window-height="690"
     id="namedview6"
     showgrid="false"
     inkscape:zoom="8.3814694"
     inkscape:cx="22.093391"
     inkscape:cy="27.440433"
     inkscape:window-x="0"
     inkscape:window-y="28"
     inkscape:window-maximized="1"
     inkscape:current-layer="svg4" />
  <path
     style="fill:#cccccc;fill-opacity:1"
     d="M 24 2 C 18.48 2 14 6.4800004 14 12 L 14 16 L 12 16 L 8 16.011719 L 8 40 C 8 42.21 9.79 44 12 44 L 36 44 C 38.21 44 39.97604 42.20987 40 40 L 40.253906 16.095703 L 36 16 L 34 16 L 34 12 C 34 6.4800004 29.52 2 24 2 z M 24 5.8007812 C 27.42 5.8007812 30.199219 8.5800004 30.199219 12 L 30.199219 16 L 17.800781 16 L 17.800781 12 C 17.800781 8.5800004 20.58 5.8007813 24 5.8007812 z "
     id="path2-6" />
</svg>

<svg xmlns="http://www.w3.org/2000/svg" xmlns:xlink="http://www.w3.org/1999/xlink" fill="#ff9800" height="48" width="48"><defs><linearGradient id="b"><stop offset="0" stop-color="#484537"/><stop offset="1" stop-color="#c8c4b7"/></linearGradient><linearGradient id="a"><stop offset="0" stop-color="#a0892c"/><stop offset="1" stop-color="#d3bc5f"/></linearGradient><linearGradient xlink:href="#a" id="c" x1="8" y1="44.28" x2="8" y2="16.01" gradientUnits="userSpaceOnUse"/><linearGradient xlink:href="#b" id="d" x1="-6.18" y1="18.04" x2="-6.07" y2="2.04" gradientUnits="userSpaceOnUse" gradientTransform="translate(20)"/></defs><path d="M30.2 16H12l-4 .01V40a4 4 0 0 0 4 4h24a4.01 4.01 0 0 0 4-4l.25-23.9L36 16h-5.8z" fill="url(#c)"/><path d="M14 16h3.8v-4a6.2 6.2 0 0 1 12.4 0v4H34v-4a10 10 0 0 0-20 0z" fill="url(#d)"/></svg>
